X: 4
T: The Boys of Wexford v.2
P: piffero secondo a0652
O: Dan Moylan
%R: march
F: http://ancients.sudburymuster.org/mus/sng/pdf/boysofwexfordC0.pdf
Z: 2020 John Chambers <jc:trillian.mit.edu>
M: 2/4
L: 1/8
K: G
B, |\
B,C DF | ED CB, | B,C DF | GE FD | B,A, CB, | GF ED | C4 | DC B,A, ||\
B,C DF | ED CB, | B,C DF |
GE FD | B,A, CB, | GF ED | B,4- | B,2 B,2 ||\
CA, B,D | DC B,A, | B,A, B,C | GA BA | AG GF |
FG ED | B,4 | DC B,A, ||\
B,C DF | ED CB, | B,C DF | GE FD | B,A, CB, | GF ED | B,4- | B,3 |]

% %sep 1 1 200
% %center - - - - - - - - - -
% Whatever we want at the bottom of each set belongs here.
